svg/fluentui-system-icons/ic_fluent_system_20_filled.svg

<svg width="20" height="20" viewBox="0 0 20 20" fill="none" xmlns="http://www.w3.org/2000/svg">
<path d="M2 6.5C2 5.11929 3.11929 4 4.5 4H15.5C16.8807 4 18 5.11929 18 6.5V13.5C18 14.8807 16.8807 16 15.5 16H4.5C3.11929 16 2 14.8807 2 13.5V6.5ZM4.5 5.5C3.94772 5.5 3.5 5.94772 3.5 6.5V13.5C3.5 14.0523 3.94772 14.5 4.5 14.5H15.5C16.0523 14.5 16.5 14.0523 16.5 13.5V6.5C16.5 5.94772 16.0523 5.5 15.5 5.5H4.5Z" fill="#212121"/>
</svg>

<svg xmlns="http://www.w3.org/2000/svg" width="20" height="20"><path d="M2 6.5A2.5 2.5 0 0 1 4.5 4h11A2.5 2.5 0 0 1 18 6.5v7a2.5 2.5 0 0 1-2.5 2.5h-11A2.5 2.5 0 0 1 2 13.5v-7Zm2.5-1a1 1 0 0 0-1 1v7a1 1 0 0 0 1 1h11a1 1 0 0 0 1-1v-7a1 1 0 0 0-1-1h-11Z"/></svg>
